!!!COM:	Josquin des Prez
!!!CDT:	~1450-1521/08/27
!!!OPR:	Missa L'homme arm&eacute; sexti toni
!!!ONM:	4
!!!OTL:	Sanctus
!!!AGN:	Mass; Sanctus
!!!SCT:	NJE 6.2
!!!SCA:	New Josquin Edition 6.2
!!!voices:	4
!!!voices-OPR: 4(-6)
**kern	**kern	**kern	**kern
*staff4	*staff3	*staff2	*staff1
*Ivox	*Ivox	*Ivox	*Ivox
*I"Bassus	*I"Tenor	*I"Altus	*I"Superius
*I'B	*I'T	*I'A	*I'S
*>[A,B,C,D,E,F,G,D]	*>[A,B,C,D,E,F,G,D]	*>[A,B,C,D,E,F,G,D]	*>[A,B,C,D,E,F,G,D]
*>Sanctus[A]	*>Sanctus[A]	*>Sanctus[A]	*>Sanctus[A]
*>Pleni[B]	*>Pleni[B]	*>Pleni[B]	*>Pleni[B]
*>GloriaTua[C]	*>GloriaTua[C]	*>GloriaTua[C]	*>GloriaTua[C]
*>Osanna[D]	*>Osanna[D]	*>Osanna[D]	*>Osanna[D]
*>Benedictus[E]	*>Benedictus[E]	*>Benedictus[E]	*>Benedictus[E]
*>QuiVenit[F]	*>QuiVenit[F]	*>QuiVenit[F]	*>QuiVenit[F]
*>InNomine[G]	*>InNomine[G]	*>InNomine[G]	*>InNomine[G]
*>A	*>A	*>A	*>A
*clefF4	*clefGv2	*clefGv2	*clefG2
*k[b-]	*k[b-]	*k[b-]	*k[b-]
*M3/1	*M3/1	*M3/1	*M3/1
*met(O)	*met(O)	*met(O)	*met(O)
=1-	=1-	=1-	=1-
!!section: Sanctus
!!!OMD: Sanctus
!LO:TX:Y=30:X=-50:t=[B add E-flat below staff to key sig.]	!	!	!
0FF	0.r	0.r	[0.f
1FF	.	.	.
=2	=2	=2	=2
1FF	0.r	0F	0f]
1.BB-	.	.	.
.	.	1F	1d
2AA/	.	.	.
=3	=3	=3	=3
1AA	0.r	1F	1c
0GG	.	1.B-	1r
.	.	.	1g
.	.	2A/	.
=4	=4	=4	=4
[0.FF	0F	1A	2a/
.	.	.	1cc
.	.	1.c	.
.	.	.	2b-\
.	1F	.	2a/
.	.	2B-\	2g/
=5	=5	=5	=5
1FF]	1F	1A	1f
0EE-	1.B-	0G	0g
.	2A/	.	.
=6	=6	=6	=6
0FF	1A	1.F	0.c
.	1.c	.	.
.	.	4E/	.
.	.	4D/	.
1r	.	[1C	.
.	2B-\	.	.
=7	=7	=7	=7
0C	1A	2C/]	1r
.	.	2D/	.
.	0G	2E/	1r
.	.	1F	.
1C	.	.	1g
.	.	2E/	.
=8	=8	=8	=8
0.FF	1.F	0F	1.a
.	4E/	.	1cc
.	4D/	.	.
.	[1C	1r	.
.	.	.	4b-\
.	.	.	4a/
=9	=9	=9	=9
1.C	2C/]	0.r	1.g
.	2D/	.	.
.	2E/	.	.
2AA/	1F	.	2f/
2BB-/	.	.	1g
2C/	2E/	.	.
=10	=10	=10	=10
1.AA	0F	1.c	0a
2FF/	.	2A/	.
2GG/	1r	2B-\	1r
2AA/	.	2c\	.
=11	=11	=11	=11
0FF	0.r	1.A	1.cc
.	.	2F/	2a/
1r	.	2G/	2b-\
.	.	2A/	2cc\
=12	=12	=12	=12
0FF	1.c	0F	1.a
.	2A/	.	2f/
1r	2B-\	1r	2g/
.	2c\	.	2a/
=13	=13	=13	=13
0FF	1.A	0.r	2f/
.	.	.	1cc
.	2F/	.	2a/
1r	2G/	.	2b-\
.	2A/	.	2cc\
=14	=14	=14	=14
0FF	0F	1.c	1.a
.	.	2c\	2.cc\
1F	1r	1c	.
.	.	.	4b-\
.	.	.	4a/
.	.	.	4g/
=15	=15	=15	=15
2BB-/	0.r	2d\	2b-\
2.F\	.	1c	2.a/
4E\	.	.	4g/
2F\	.	2A/	4f/
.	.	.	4e/
2G\	.	2B-\	2d/
2E\	.	2c\	2e/
=16	=16	=16	=16
2.F\	1.c	1A	2.c/
4E\	.	.	4d/
2.C/	.	0G	4e/
.	.	.	4f/
.	2c\	.	2.g/
4D\	.	.	.
2.E-\	1c	.	.
.	.	.	4a/
.	.	.	2cc\
4D\	.	.	.
=17	=17	=17	=17
2BB-/	2d\	0.F	2b-\
1F	1c	.	2.a/
.	.	.	4g/
2FF/	2A/	.	4f/
.	.	.	4e/
2BB-/	2B-\	.	4d/
.	.	.	4c/
2AA/	2c\	.	[2a/
=18	=18	=18	=18
1FF	1A	[0.cl	4a/]
.	.	.	4g/
.	.	.	2f/
0C	0G	.	2e/
.	.	.	1f
.	.	.	2e/
=19	=19	=19	=19
0.FFl	0.Fl	0.c]	0.fl
!!LO:LB:i:g=z
=20||	=20||	=20||	=20||
*>B	*>B	*>B	*>B
*clefF4	*clefGv2	*clefGv2	*clefG2
*k[b-]	*k[b-]	*k[b-]	*k[b-]
*M2/1	*M2/1	*M2/1	*M2/1
*met(C|)	*met(C|)	*met(C|)	*met(C|)
!!!OMD: Pleni sunt celi
!!section: Pleni sunt celi
0r	0r	0r	1.g
.	.	.	4f/
.	.	.	4e/
=21	=21	=21	=21
0r	0r	0r	2f/
.	.	.	2g/
.	.	.	1c
=22	=22	=22	=22
0r	0r	1.c	1r
.	.	.	[1g
.	.	4B-\	.
.	.	4A/	.
=23	=23	=23	=23
0r	0r	2B-\	1g]
.	.	2c\	.
.	.	1F	1a
=24	=24	=24	=24
0r	0r	1r	2g/
.	.	.	1a
.	.	[1c	.
.	.	.	4g/
.	.	.	4f/
=25	=25	=25	=25
0r	0r	1c]	1e
.	.	1d	1d
=26	=26	=26	=26
0r	0r	2c\	1r
.	.	1d	.
.	.	.	[1a
.	.	4c\	.
.	.	4B-\	.
=27	=27	=27	=27
0r	0r	1A	1a]
.	.	1G	1b-
=28	=28	=28	=28
0r	0r	1r	2a/
.	.	.	1b-
.	.	[1d	.
.	.	.	4a/
.	.	.	4g/
=29	=29	=29	=29
0r	0r	1d]	1f
.	.	1e-i	1g
=30	=30	=30	=30
0r	0r	2d\	1r
.	.	1e-i	.
.	.	.	1c
.	.	4d\	.
.	.	4c\	.
=31	=31	=31	=31
0r	0r	1B-	1d
.	.	1c	1e
=32	=32	=32	=32
0r	0r	2r	1f
.	.	2F/	.
.	.	2G/	2e/
.	.	2A/	[2f/
=33	=33	=33	=33
0r	0r	2.B-\	4f/]
.	.	.	4e/
.	.	.	4d/
.	.	4A/	4c/
.	.	4B-\	4d/
.	.	4A/	4c/
.	.	4B-\	[2g/
.	.	4G/	.
=34	=34	=34	=34
0r	0r	2.c\	4g/]
.	.	.	4f/
.	.	.	4e/
.	.	4B-\	4d/
.	.	4c\	4e/
.	.	4B-\	4d/
.	.	4c\	[2a/
.	.	4A/	.
=35	=35	=35	=35
0r	0r	2.d\	4a/]
.	.	.	4g/
.	.	.	4f/
.	.	4c\	4e/
.	.	2.A/	4f/
.	.	.	4e/
.	.	.	[2a/
.	.	4B-\	.
=36	=36	=36	=36
0r	0r	2.c\	2a/]
.	.	.	1g
.	.	4B-\	.
.	.	4G/	.
.	.	4A/	.
.	.	4B-\	[2f/
.	.	4c\	.
=37	=37	=37	=37
0r	0r	2d\	2f/]
.	.	1c	2e/
.	.	.	1d
.	.	2Bni\	.
=38	=38	=38	=38
0r	0r	0cl	0cl
!!LO:LB:i:g=z
=39||	=39||	=39||	=39||
*>C	*>C	*>C	*>C
*clefF4	*clefGv2	*clefGv2	*clefG2
*k[b-]	*k[b-]	*k[b-]	*k[b-]
*M2/1	*M2/1	*M2/1	*M2/1
*met(C|)	*met(C|)	*met(C|)	*met(C|)
!!!OMD: Gloria tua
!!section: Gloria tua
0r	1.c	0r	0r
.	4B-\	.	.
.	4A/	.	.
=40	=40	=40	=40
0r	2B-\	0r	0r
.	2c\	.	.
.	1F	.	.
=41	=41	=41	=41
1.F	1r	0r	0r
.	[1c	.	.
4E\	.	.	.
4D\	.	.	.
=42	=42	=42	=42
2E\	1c]	0r	0r
2F\	.	.	.
1BB-	1d	.	.
=43	=43	=43	=43
1r	2c\	0r	0r
.	1d	.	.
[1F	.	.	.
.	4c\	.	.
.	4B-\	.	.
=44	=44	=44	=44
1F]	1A	0r	0r
1G	1G	.	.
=45	=45	=45	=45
2F\	1r	0r	0r
1G	.	.	.
.	[1d	.	.
4F\	.	.	.
4E\	.	.	.
=46	=46	=46	=46
1D	1d]	0r	0r
1C	1e-	.	.
=47	=47	=47	=47
1r	2d\	0r	0r
.	1e-i	.	.
[1G	.	.	.
.	4d\	.	.
.	4c\	.	.
=48	=48	=48	=48
1G]	1B-	0r	0r
1A	1c	.	.
=49	=49	=49	=49
2G\	1r	0r	0r
1A	.	.	.
.	1F	.	.
4G\	.	.	.
4F\	.	.	.
=50	=50	=50	=50
1E	1G	0r	0r
1F	1A	.	.
=51	=51	=51	=51
2r	1B-	0r	0r
2BB-/	.	.	.
2C/	2A/	.	.
2D\	[2B-\	.	.
=52	=52	=52	=52
2.E-\	4B-\]	0r	0r
.	4A/	.	.
.	4G/	.	.
4D\	4F/	.	.
4E-i\	4G/	.	.
4D\	4F/	.	.
4E-i\	[2c\	.	.
4C/	.	.	.
=53	=53	=53	=53
2.F\	4c\]	0r	0r
.	4B-\	.	.
.	4A/	.	.
4E-i\	4G/	.	.
4F\	4A/	.	.
4E-i\	4G/	.	.
4F\	[2d\	.	.
4D\	.	.	.
=54	=54	=54	=54
2.G\	4d\]	0r	0r
.	4c\	.	.
.	4B-\	.	.
4F\	4A/	.	.
2.D\	4B-\	.	.
.	4A/	.	.
.	[2d\	.	.
4E-i\	.	.	.
=55	=55	=55	=55
2.F\	2d\]	0r	0r
.	1c	.	.
4E-i\	.	.	.
4C/	.	.	.
4D\	.	.	.
4E-i\	[2B-\	.	.
4F\	.	.	.
=56	=56	=56	=56
2G\	2B-\]	0r	0r
1F	2A/	.	.
.	1G	.	.
2E\	.	.	.
=57	=57	=57	=57
0Fl	0Fl	0r	0r
!!LO:LB:i:g=z
=58||	=58||	=58||	=58||
*>D	*>D	*>D	*>D
*clefF4	*clefGv2	*clefGv2	*clefG2
*k[b-]	*k[b-]	*k[b-]	*k[b-]
*M3/1	*M3/1	*M3/1	*M3/1
*met(O|)	*met(O|)	*met(O|)	*met(O|)
!!!OMD: Osanna
!!section: Osanna
!	!LO:TX:Z=6:t=Canon at the lower fifth	!	!
0.r	0C	0.r	1.e
.	.	.	2f/
.	1C	.	1g
=59	=59	=59	=59
0FF	0.F	1.A	1a
.	.	.	2f/
.	.	2B-\	2g/
1FF	.	1c	1a
=60	=60	=60	=60
0.BB-	1r	1d	2r
.	.	.	1d
.	1r	2B-\	.
.	.	2c\	2e/
.	1F	1d	1f
=61	=61	=61	=61
1r	1E	2r	1.g
.	.	1G	.
1r	0D	.	.
.	.	2A/	1f
1BB-	.	1B-	.
.	.	.	4e/
.	.	.	4d/
=62	=62	=62	=62
1AA	1C	1.c	2e/
.	.	.	2c/
0GG	1G	.	2e/
.	.	4B-\	1d
.	.	4A/	.
.	1G	1B-	.
.	.	.	2B-/
=63	=63	=63	=63
1FF	0.C	2c\	2A/
.	.	2.A/	1c
1C	.	.	.
.	.	4G/	.
.	.	1F	2B-/
1C	.	.	1G
.	.	2E/	.
=64	=64	=64	=64
0.FF	1r	2.F/	1F
.	.	4G/	.
.	1r	2A/	1r
.	.	2B-\	.
.	1F	2c\	1A
.	.	[2d\	.
=65	=65	=65	=65
1r	1G	4d\]	1B-
.	.	4c\	.
.	.	4B-\	.
.	.	4A/	.
1r	2E/	2G/	1c
.	2F/	2A/	.
1BB-	1D	4B-\	1d
.	.	4A/	.
.	.	4G/	.
.	.	4F/	.
=66	=66	=66	=66
1C	1C	2E/	2r
.	.	1C	2e/
2AA/	1r	.	1f
2BB-/	.	1D	.
1GG	1G	.	1g
.	.	2E/	.
=67	=67	=67	=67
1FF	1A	2.F/	2r
.	.	.	2c/
.	.	4G/	.
1r	2F/	2A/	1d
.	2G/	2B-\	.
1C	1E	2G/	1e
.	.	[2A/	.
=68	=68	=68	=68
1D	1D	4A/]	2r
.	.	4G/	.
.	.	4F/	2f/
.	.	4E/	.
2BB-/	1r	2D/	1g
2C/	.	1E	.
1AA	1c	.	1a
.	.	2F/	.
=69	=69	=69	=69
1GG	1d	4G/	1b-
.	.	4A/	.
.	.	4B-\	.
.	.	4c\	.
1r	2B-\	2d\	1g
.	2c\	2e\	.
1F	1A	2c\	1a
.	.	[2d\	.
=70	=70	=70	=70
1G	1G	2d\]	1b-
.	.	2.e\	.
2E\	1r	.	2g/
.	.	4d\	.
2F\	.	1c	1a
1D	1F	.	.
.	.	2B-\	2f/
=71	=71	=71	=71
1C	0G	2c\	2e/
.	.	2G/	1g
1r	.	0B-	.
.	.	.	2f/
1BB-	1F	.	1d
=72	=72	=72	=72
0C	1E	1A	1c
.	0D	1.G	1r
1BB-	.	.	1g
.	.	2F/	.
=73	=73	=73	=73
1AA	1C	1F	1a
0GG	1G	1D	0b-
.	1G	1E	.
=74	=74	=74	=74
1FF	[0.Cl	1F	2a/
.	.	.	1g
1C	.	0G	.
.	.	.	1f
1C	.	.	.
.	.	.	2e/
=75	=75	=75	=75
0.FFl	0.C]	0.Fl	0.fl
!!LO:LB:i:g=z
!!LO:TX:rj:i:t=fine
=76||	=76||	=76||	=76||
*>E	*>E	*>E	*>E
*clefF4	*clefGv2	*clefGv2	*clefG2
*k[b-]	*k[b-]	*k[b-]	*k[b-]
*M2/1	*M2/1	*M2/1	*M2/1
*met(C|)	*met(C|)	*met(C|)	*met(C|)
!!!OMD: Benedictus
!!section: Benedictus
0r	0r	0r	1.c
.	.	.	2d/
=77	=77	=77	=77
0r	0r	0r	1e
.	.	.	1f
=78	=78	=78	=78
0r	0r	0r	1g
.	.	.	1a
=79	=79	=79	=79
0r	1.F	0r	2r
.	.	.	1a
.	2G/	.	2g/
=80	=80	=80	=80
0r	1A	0r	2f/
.	.	.	2e/
.	1B-	.	1d
=81	=81	=81	=81
0r	1c	0r	4c/
.	.	.	4d/
.	.	.	4e/
.	.	.	4c/
.	1d	.	1f
=82	=82	=82	=82
0r	2r	0r	4f/
.	.	.	4g/
.	1d	.	4a/
.	.	.	4f/
.	.	.	2b-\
.	2c\	.	[2a/
=83	=83	=83	=83
0r	2B-\	0r	4a/]
.	.	.	4g/
.	2A/	.	1f
.	1G	.	.
.	.	.	2e/
=84	=84	=84	=84
0r	0Fl	0r	0fl
!!LO:LB:i:g=z
=85||	=85||	=85||	=85||
*>F	*>F	*>F	*>F
*clefF4	*clefGv2	*clefGv2	*clefG2
*k[b-]	*k[b-]	*k[b-]	*k[b-]
*M2/1	*M2/1	*M2/1	*M2/1
*met(C|)	*met(C|)	*met(C|)	*met(C|)
!!!OMD: Qui venit
!!section: Qui venit
1.F	0r	0F	0r
4E\	.	.	.
4D\	.	.	.
=86	=86	=86	=86
2E\	0r	1G	0r
2C/	.	.	.
2D\	.	1F	.
[2F\	.	.	.
=87	=87	=87	=87
2F\]	0r	1G	0r
2E\	.	.	.
1F	.	2A/	.
.	.	2F/	.
=88	=88	=88	=88
2r	0r	1A	0r
2.F\	.	.	.
.	.	2r	.
4E\	.	.	.
4D\	.	2F/	.
4C/	.	.	.
=89	=89	=89	=89
2BB-/	0r	2G/	0r
2D\	.	2F/	.
1C	.	2G/	.
.	.	2A/	.
=90	=90	=90	=90
1.BB-	0r	2B-\	0r
.	.	2F/	.
.	.	1B-	.
2C/	.	.	.
=91	=91	=91	=91
2D\	0r	2F/	0r
2E\	.	2G/	.
2F\	.	2F/	.
2BB-/	.	2G/	.
=92	=92	=92	=92
[0Fl	0r	2A/	0r
.	.	2B-\	.
.	.	2c\	.
.	.	2F/	.
=93	=93	=93	=93
0F]	0r	0cl	0r
!!LO:LB:i:g=z
=94||	=94||	=94||	=94||
*>G	*>G	*>G	*>G
*clefF4	*clefGv2	*clefGv2	*clefG2
*k[b-]	*k[b-]	*k[b-]	*k[b-]
*M2/1	*M2/1	*M2/1	*M2/1
*met(C|)	*met(C|)	*met(C|)	*met(C|)
!!!OMD: In nomine
!!section: In nomine
0r	0r	0r	1.c
.	.	.	2d/
=95	=95	=95	=95
0r	0r	0r	1e
.	.	.	1f
=96	=96	=96	=96
0r	0r	0r	1g
.	.	.	1a
=97	=97	=97	=97
0r	1.F	0r	2r
.	.	.	1a
.	2G/	.	2g/
=98	=98	=98	=98
0r	1A	0r	2f/
.	.	.	2e/
.	1B-	.	1d
=99	=99	=99	=99
0r	1c	0r	4c/
.	.	.	4d/
.	.	.	4e/
.	.	.	4c/
.	1d	.	1f
=100	=100	=100	=100
0r	2r	0r	4f/
.	.	.	4g/
.	1d	.	4a/
.	.	.	4f/
.	.	.	2b-\
.	2c\	.	[2a/
=101	=101	=101	=101
0r	2B-\	0r	4a/]
.	.	.	4g/
.	2A/	.	1f
.	1G	.	.
.	.	.	2e/
=102	=102	=102	=102
0r	0Fl	0r	0fl
!!LO:TX:i:Y=40:rj:t=Osanna ut supra
=||	=||	=||	=||
*-	*-	*-	*-
!!!RDF**kern: l=long note in original notation
!!!RDF**kern: i=editorial accidental
!!!ENC: Jesse Rodin; Victoria Chang 2011/09/04
!!!END: 2011/09/04/
!!!SMS: Petrucci 1502
!!!EED: Jesse Rodin
!!!EEV: 2013/10/25/
!!attribution-level@Jos: 1 (secure)
!!!ONB: Translated from MusicXML and edited on 2011/10/03/ by Craig Sapp
!!muse2ps: T^@{OPR}^u^@{ONM}{. }@{OTL}^C^@{COM}\n@{SCT}^i2I100v85,90,85,150Q16
